X:1
T:Rosario, 11.11.11 D
T:Rosario, 11.11.11 D
T:Adam Geibel, 1897
T:Public Domain Courtesy of the Cyber Hymnal™
C:Adam Geibel, 1897
Z:Public Domain
Z:Courtesy of the Cyber Hymnal™
%%score ( 1 2 ) ( 3 4 )
L:1/8
Q:1/4=93
M:4/4
K:C
V:1 treble 
V:2 treble 
V:3 bass 
V:4 bass 
V:1
 [EG] | [EG]2 [EA][EB] [Ed]2 [Ec][CE] | [CE]2 [CD][CD] [CD]2 z [CA] | %3
 [CA]2 [B,D][B,D] [B,D]2 [CE][DF] | [FA]2 [EG][^D^F] [EG]2 z [=FG] | %5
 [EG]2 [EA][EB] [Ed]2 [Ec][CE] | [CE]2 [CD][CD] [CD]2 z [DA] | [DA]2 [DB][Dc] [DB]2 [DA][DG] | %8
 [D^F]2 [FB][FA] G2 z G | [Fd]2 [Fc][FB] [Ec]2 [CE]E | [DB]2 [DA][D^G] [CA]2 z [EA] | %11
 [^Dc]2 [DB][DA] [EA]2 [EG][EG] | [^Fc]2 [=Fd][FB] [Ec]2 z |] %13
V:2
 x | x8 | x8 | x8 | x8 | x8 | x8 | x8 | x4 G2 G x | x7 E | x8 | x8 | x7 |] %13
V:3
 [C,G,] | [C,G,]2 [C,G,][C,G,] [C,G,]2 [C,G,][C,G,] | [F,A,]2 [F,A,][F,A,] [F,A,]2 z [F,A,] | %3
 G,2 [G,,G,][G,,G,] [G,,G,]2 G,G, | [C,C]2 [C,C][C,C] [C,C]2 z [G,B,] | %5
 [C,C]2 [C,G,][C,G,] [C,G,]2 [C,G,][C,G,] | [F,A,]2 [F,A,][F,A,] [F,A,]2 z [F,C] | %7
 [^F,C]2 [F,B,][F,A,] G,2 [G,C][G,B,] | [D,A,]2 [D,D][D,C] [G,B,]2 z G, | %9
 [G,B,]2 [G,C][G,D] [C,C]2 [C,G,]E, | [E,^G,]2 [E,A,][E,B,] [A,,A,]2 z [A,C] | %11
 [^F,A,]2 [F,B,][F,C] [G,C]2 [G,C][G,C] | [D,A,]2 [G,B,][G,D] [C,C]2 z |] %13
V:4
 x | x8 | x8 | G,2 x2 G,G, x2 | x8 | x8 | x8 | x4 G,2 x2 | x7 G, | x7 E, | x8 | x8 | x7 |] %13

